X:1
T:Bredon Hill and Other Songs
T:Bredon Hill
T:Bredon Hill and Other Songs
T:George Butterworth
T:1. Bredon Hill
T:Alfred Edward Housman
T:Creative Commons copyright waiver (CC0 1.0 Universal)
T:Creative Commons copyright waiver (CC0 1.0 Universal)
T:Creative Commons copyright waiver (CC0 1.0 Universal)
T:Creative Commons copyright waiver (CC0 1.0 Universal)
T:Creative Commons copyright waiver (CC0 1.0 Universal)
T:Creative Commons copyright waiver (CC0 1.0 Universal)
T:Creative Commons copyright waiver (CC0 1.0 Universal)
T:Creative Commons copyright waiver (CC0 1.0 Universal)
C:George Butterworth
Z:Alfred Edward Housman
Z:Creative Commons copyright waiver (CC0 1.0 Universal)
%%score 1 { 2 | 3 }
L:1/8
Q:1/4=124
M:4/4
K:F
V:1 treble nm="Voice"
V:2 treble nm="Piano"
V:3 bass 
V:1
"^Con anima" z | z8 | z4 z2 A2 | G3 C C2 G2 | A4 F2 A2 | G2 C2 F2 d2 | c8- | c2 z2 z4 | z8 | z8 | %10
w: ||In|sum- mer time on|Bre- don The|bells they sound so|clear;|_|||
 z8 | z6 c2 | e7 c | d6 G2 | c8- | c2 z2[Q:1/4=110]"^T" z4 | z8 | z8 |[Q:1/4=114]"^T" z8 | z8 | %20
w: |A|hap- py|noise to|hear.|_|||||
 z8 | z8 | z8 |[Q:1/4=114]"^T" z8[Q:1/4=104]"^T"[Q:1/4=100]"^T"[Q:1/4=124]"^T" | z8 | z8 | %26
w: ||||||
 z4 z2 c2 | ^c3 c A2 c2 | ^c6 z2 | z8 | z8 ||[K:F#] z8 | z8 | z8 | z8 | z8 | z8 | z8 | z8 | z8 | %40
w: And|hear the larks so|high||||||||||||
 z8 | z2 z2 z2 c2 | c3 c A2 c2 | c4 A2 z2 | z8 | z8 | z8 | z8 | z8 ||[M:3/2] z12 || %50
w: |"Come|all to church, good|peo- ple;|||||||
[K:G][M:4/4] z8 | z8 | z8 | z8 | z8 | z8 | z8 | z4 z2 B2 | A2 D2 G2 e2 | d8- | d2 z2 z2 z2 | z8 | %62
w: |||||||A-|mong the spring- ing|thyme,|_||
 z8 | z8 | z8 | z8 | z8 | z8 | z8 | z8 | z8 | z8 | z8 | z8 | z8 || %75
w: |||||||||||||
[K:Bb][Q:1/4=114]"^Tempo moderato" z8 | z4 z2 A2 | G3 C C2 G2 | A4 F2 A2 | G3 C C2 G2 | A4 z4 | %81
w: |But|when the snows at|Christ- mas On|Bre- don top were|strown.|
 z8 | z8 | z8 | z8 ||[M:3/2] z12 ||[M:4/4] z8 | z8 | z8 | z8 | z8 | z8 | z8 | z4 z2 B2 | %94
w: ||||||||||||And|
 A2 (CD) (EF) (GA) ||[M:3/2] B4 z2 z2 z2 z2 | z12 ||[M:4/4] z8 | z8 | z8 | z8 ||[K:F] z8 | z8 | %103
w: so to * church * went *|she,||||||||
 z8 | z8 | z8 | z8 | z8 | z8 ||[M:3/2] z8 z2 c2 ||[M:4/4] !fermata!g8 | F4 z4 | z8 | z8 | z8 | z8 | %116
w: ||||||I|hear|you,|||||
 z8 | z8 | z8 |[Q:1/4=52]"_Lento" z8 | z8 | z8 |] %122
w: ||||||
V:2
 z | z8 | z8 | z8 | z8 | z8 | z8 | z8 | z8 | z8 | z8 | z8 | z8 | z8 | z8 | z8 | z8 | z8 | z8 | z8 | %20
 z8 | z8 | z8 | z8 | z8 | z8 | z8 | z8 | z8 | z8 | z8 ||[K:F#] z8 | z8 | z8 | z8 | z8 | z8 | z8 | %38
 z8 | z8 | z8 | z8 | z8 | z8 | z8 | z8 | z8 | z8 | z8 ||[M:3/2] z12 ||[K:G][M:4/4] z8 | z8 | z8 | %53
 z8 | z8 | z8 | z8 | z8 | z8 | z8 | z8 | z8 | z8 | z8 | z8 | z8 | z8 | z8 | z8 | z8 | z8 | z8 | %72
[K:bass] z8 | z8 | z4[K:treble] [^C=EA]2 z2 ||[K:Bb] z8 | z8 | z8 | z8 | z8 | z8 | z8 | z8 | z8 | %84
 z8 ||[M:3/2] z12 ||[M:4/4] z8 | z8 | z8 | z8 | z8 | z8 | z8 | z8 | z8 ||[M:3/2] z12 | z12 || %97
[M:4/4] z8 | z8 | z8 | z8 ||[K:F] z8 | z8 | z8 | z8 | z8 | z8 | z8 | z8 ||[M:3/2] z12 || %110
[M:4/4] z8 | z8 | z8 | z8 | z8 | z8 | z8 | z8 | z8 | z8 | z8 | z8 |] %122
V:3
 z | z8 | z8 | z8 | z8 | z8 | z8 | z8 | z8 | z8 | z8 | z8 | z8 | z8 | z8 | z8 | z8 | z8 | z8 | z8 | %20
 z8 | z8 | z8 | z8 | z8 | z8 | z8 | z8 | z8 | z8 | z8 ||[K:F#] z8 | z8 | z8 | z8 | z8 | z8 | z8 | %38
 z8 | z8 | z8 | z8 | z8 | z8 | z8 | z8 | z8 | z8 | z8 ||[M:3/2] z12 ||[K:G][M:4/4] z8 | z8 | z8 | %53
 z8 | z8 | z8 | z8 | z8 | z8 | z8 | z8 | z8 | z8 | z8 | z8 | z8 | z8 | z8 | z8 | z8 | z8 | z8 | %72
 z8 | z8 | z4 ^F,2 z2 ||[K:Bb] z8 | z8 | z8 | z8 | z8 | z8 | z8 | z8 | z8 | z8 ||[M:3/2] z12 || %86
[M:4/4] z8 | z8 | z8 | z8 | z8 | z8 | z8 | z8 | z8 ||[M:3/2] z12 | z12 ||[M:4/4] z8 | z8 | z8 | %100
 z8 ||[K:F] z8 | z8 | z8 | z8 | z8 | z8 | z8 | z8 ||[M:3/2] z12 ||[M:4/4] z8 | z8 | z8 | z8 | z8 | %115
 z8 | z8 | z8 | z8 | z8 | z8 | z8 |] %122

